src/images/icons/icon-arrow-down-slim.svg

<svg width="9" height="6" viewBox="0 0 12 7" fill="none" xmlns="http://www.w3.org/2000/svg">
<path d="M6.1 6.18193L10.8 1.68193C11.1 1.38193 11.1 0.881934 10.8 0.581934C10.5 0.281934 10 0.281934 9.7 0.581934L5.5 4.58193L1.3 0.581934C1 0.281934 0.5 0.281934 0.2 0.581934C0.1 0.781934 0 0.981934 0 1.18193C0 1.38193 0.1 1.58193 0.2 1.68193L4.9 6.18193C5.3 6.48193 5.7 6.48193 6.1 6.18193Z" fill="black"/>
</svg>

<svg xmlns="http://www.w3.org/2000/svg" width="12" height="7" fill="none"><path fill="#000" d="m6.1 6.18 4.7-4.5c.3-.3.3-.8 0-1.1-.3-.3-.8-.3-1.1 0l-4.2 4-4.2-4C1 .28.5.28.2.58c-.1.2-.2.4-.2.6 0 .2.1.4.2.5l4.7 4.5c.4.3.8.3 1.2 0Z"/></svg>
